assets/icons/qvision/swap_horiz.svg

<svg xmlns="http://www.w3.org/2000/svg" height="24" viewBox="0 0 24 24" width="24"><path d="M0 0h24v24H0z" fill="none"/><path d="M6.99 11L3 15l3.99 4v-3H14v-2H6.99v-3zM21 9l-3.99-4v3H10v2h7.01v3L21 9z"/></svg>

<svg width="24" height="24" viewBox="0 0 24 24" fill="none" xmlns="http://www.w3.org/2000/svg">
<g clip-path="url(#clip0_147_4814)">
<path d="M6.99 11L3 15L6.99 19V16H14V14H6.99V11ZM21 9L17.01 5V8H10V10H17.01V13L21 9Z" fill="#323232"/>
</g>
<defs>
<clipPath id="clip0_147_4814">
<rect width="24" height="24" fill="white"/>
</clipPath>
</defs>
</svg>
